Dominus_Dark_Funeral/scalable/actions/process-stop.svg

<svg xmlns="http://www.w3.org/2000/svg" width="24" height="24" version="1"><path fill="#e6e6e6" d="M11.959 2.37c-5.386 0-9.773 4.387-9.773 9.773s4.387 9.771 9.773 9.771 9.773-4.385 9.773-9.771c0-5.386-4.387-9.774-9.773-9.774zM8.256 7.52a.8.8 0 0 1 .568.234l3.135 3.135 3.133-3.135a.805.805 0 0 1 1.137 1.137l-3.135 3.132 3.135 3.135a.802.802 0 0 1-.569 1.371.786.786 0 0 1-.568-.236l-3.133-3.133-3.135 3.133a.786.786 0 0 1-.568.236.802.802 0 0 1-.566-1.371l3.132-3.135L7.69 8.891a.805.805 0 0 1 .567-1.371z"/></svg>

<?xml version="1.0" encoding="UTF-8" standalone="no"?>
<svg
   xmlns:dc="http://purl.org/dc/elements/1.1/"
   xmlns:cc="http://creativecommons.org/ns#"
   xmlns:rdf="http://www.w3.org/1999/02/22-rdf-syntax-ns#"
   xmlns:svg="http://www.w3.org/2000/svg"
   xmlns="http://www.w3.org/2000/svg"
   xmlns:sodipodi="http://sodipodi.sourceforge.net/DTD/sodipodi-0.dtd"
   xmlns:inkscape="http://www.inkscape.org/namespaces/inkscape"
   width="24"
   height="24"
   version="1"
   id="svg4"
   sodipodi:docname="process-stop.svg"
   inkscape:version="0.92.4 (5da689c313, 2019-01-14)">
  <metadata
     id="metadata10">
    <rdf:RDF>
      <cc:Work
         rdf:about="">
        <dc:format>image/svg+xml</dc:format>
        <dc:type
           rdf:resource="http://purl.org/dc/dcmitype/StillImage" />
        <dc:title></dc:title>
      </cc:Work>
    </rdf:RDF>
  </metadata>
  <defs
     id="defs8" />
  <sodipodi:namedview
     pagecolor="#ffffff"
     bordercolor="#666666"
     borderopacity="1"
     objecttolerance="10"
     gridtolerance="10"
     guidetolerance="10"
     inkscape:pageopacity="0"
     inkscape:pageshadow="2"
     inkscape:window-width="1112"
     inkscape:window-height="480"
     id="namedview6"
     showgrid="false"
     inkscape:zoom="9.8333333"
     inkscape:cx="1.0677966"
     inkscape:cy="12"
     inkscape:window-x="0"
     inkscape:window-y="25"
     inkscape:window-maximized="0"
     inkscape:current-layer="svg4" />
  <path
     d="m 11.959,2.37 c -5.386,0 -9.773,4.387 -9.773,9.773 0,5.386 4.387,9.771 9.773,9.771 5.386,0 9.773,-4.385 9.773,-9.771 0,-5.386 -4.387,-9.774 -9.773,-9.774 z M 8.256,7.52 a 0.8,0.8 0 0 1 0.568,0.234 l 3.135,3.135 3.133,-3.135 a 0.805,0.805 0 0 1 1.137,1.137 l -3.135,3.132 3.135,3.135 A 0.802,0.802 0 0 1 15.66,16.529 0.786,0.786 0 0 1 15.092,16.293 L 11.959,13.16 8.824,16.293 A 0.786,0.786 0 0 1 8.256,16.529 0.802,0.802 0 0 1 7.69,15.158 L 10.822,12.023 7.69,8.891 A 0.805,0.805 0 0 1 8.257,7.52 Z"
     id="path2"
     inkscape:connector-curvature="0"
     style="fill:#e6e6e6" />
</svg>
